X:1
T:Title
%%score ( 1 2 ) ( 3 4 )
L:1/8
Q:1/4=100
M:4/4
K:Eb
V:1 treble nm="Grand Piano, Soprano"
V:2 treble 
V:3 bass nm="Choir Pad, Jesus, Thou My Only Refuge"
V:4 bass 
V:1
 [GB]3 [GB] [_G=A][=GB][_Ac][GB] | [Ge]4 [GB]4 | [DB]3 [DF] [Dc][EB][DF][FA] | [EG]6 z2 | %4
w: By~Peter~Philip~Bilhorn * * * * *||||
 [GB]3 [GB] [_G=A][=GB][_Ac][GB] | [Ge]4 [GB]4 | [DF]3 [FB] [Fd][Fe][Fd][Ec] | B6 z2 | %8
w: ||||
 [GB]4 [Ge]4 | [Ac]4 [Ae]4 | [Gd]3 [Ge] [Af][Ad][DB][FA] | [EA]4 [EG]4 | %12
w: ||||
 [GB]3 [EG] [EG][_DG][=DA][EB] | c2 z2 z4 | [EG] [EB]3 [DF]3 [DG] | E6[K:bass] z2 | z8 |] %17
w: |||||
V:2
 x8 | x8 | x8 | x8 | x8 | x8 | x8 | D>D F>G A2 z2 | x8 | x8 | x8 | x8 | x8 | E2- [Ee]4 E[EF] | x8 | %15
 B,2 C>[K:bass]=A, B,4- | B,4 z4 |] %17
V:3
 [E,E]3 [E,E] [E,E][E,E][E,E][E,E] | z4 E2 z2 | [B,,B,]3 [B,,B,] [B,,A,][B,,G,][B,,B,][D,B,] | %3
 [E,B,]6 z2 | [E,E]3 [E,E] [E,E][E,E][E,E][E,E] | z4 E2 z2 | %6
 [F,B,]3 [F,D] [F,B,][F,C][F,B,][F,=A,] | B,,->[B,,-B,] [B,,-D]>[B,,-E] [B,,DF]2 z2 | %8
 [E,E]4 [E,E]4 | [A,E]4 [A,C]4 | [B,,B,]3 [B,,B,] [D,B,][B,,B,][B,,B,][D,=B,] | [E,C]4 [E,B,]4 | %12
 [E,E]3 [E,B,] [E,B,][=E,B,][F,B,][G,B,] | A,2 C4 [C,=A,][=B,,A,] | %14
 [B,,B,] [B,,G,]3 [B,,A,]3 [B,,B,] | G,2 z2 z4 | z8 |] %17
V:4
 x8 | [E,B,]4 E,2- [E,B,]2 | x8 | x8 | x8 | [E,B,]4 E,2- [E,B,]2 | x8 | B,2 z2 z4 | x8 | x8 | x8 | %11
 x8 | x8 | x8 | x8 | E,2- [E,-A,]>[E,-_G,] [E,=G,-]2 G,2- | G,4 z4 |] %17

